web/public/favicons/favicon-light-success.svg

<svg width="22" height="22" viewBox="0 0 22 22" fill="none" xmlns="http://www.w3.org/2000/svg">
<g clip-path="url(#clip0_401_47)">
<path fill-rule="evenodd" clip-rule="evenodd" d="M2.1567 3.71419C1.89567 3.40784 1.61238 3.07537 1.26305 2.74401C1.18905 2.67201 1.25305 2.55101 1.35505 2.56901C2.15263 2.71226 3.21183 2.59786 4.37141 2.47261C7.16201 2.17121 10.534 1.807 12.2401 4.82001C12.4343 4.98374 12.5859 5.15492 12.7328 5.32082C12.8604 5.46498 12.9845 5.60515 13.1301 5.73301C15.3701 7.73001 19.3681 10.773 21.3181 11.926C21.8781 12.259 21.5911 12.828 21.0021 12.596C20.9526 12.5765 20.9023 12.5566 20.8515 12.5365C18.5667 11.6332 14.9163 10.1899 12.6831 11.846C12.6475 11.8831 12.6073 11.923 12.5658 11.9641C12.5538 11.976 12.5417 11.988 12.5296 12H10.6363C10.6471 11.8612 10.6746 11.7236 10.7191 11.589C10.8153 11.2924 11.0186 11.0827 11.2314 10.8631L11.2431 10.851L11.2431 10.851C11.6401 10.443 12.1831 9.88496 12.2431 8.64301V8.64201C12.3271 6.81501 10.7191 5.53801 9.08705 5.22201C7.40505 4.89601 5.24805 5.46901 4.34305 8.07401C4.03345 8.96985 3.93331 10.0602 3.8175 11.3211L3.81705 11.326C3.62805 13.38 3.39205 15.935 2.14505 19.072C-0.133949 24.811 1.16605 29.92 2.54605 35.326L2.56689 35.4081C3.04031 37.272 3.5252 39.1811 3.87605 41.166L4.33305 40.184L4.44905 39.925C6.32805 35.633 8.40905 28.586 7.28405 23.143C6.93705 21.466 6.60805 20.133 6.05805 18.867C5.96905 18.661 6.03605 18.483 6.12005 18.423C6.21305 18.353 6.40705 18.41 6.61505 18.59C7.69805 19.521 8.67705 21.3 9.00205 22.797C10.2861 28.715 8.04705 35.977 6.08305 40.465C6.87368 43.3367 7.53105 46.2435 8.05305 49.176C9.86005 45.913 9.74505 42.15 8.72505 39.716C8.6605 39.5648 8.64106 39.3981 8.66905 39.236C9.15005 36.466 10.2151 34.184 11.2461 31.977L11.2536 31.9608C12.4738 29.3448 13.6266 26.8732 13.9171 23.592C13.9654 23.0505 13.9929 22.519 14.0001 22H15.7262C15.7199 22.5707 15.6907 23.1536 15.6381 23.746C15.5483 24.7516 15.3784 25.7484 15.1301 26.727L17.5131 25.355L18.6651 22.686C18.7062 22.5765 18.7692 22.4765 18.8502 22.3921C18.9312 22.3077 19.0286 22.2406 19.1363 22.195C19.244 22.1494 19.3599 22.1261 19.4769 22.1267C19.5938 22.1272 19.7095 22.1515 19.8168 22.1982C19.9241 22.2448 20.0208 22.3127 20.101 22.3979C20.1812 22.483 20.2433 22.5836 20.2834 22.6935C20.3236 22.8034 20.341 22.9203 20.3346 23.0371C20.3281 23.1539 20.298 23.2682 20.2461 23.373L18.9611 26.323L18.2811 29.181C18.2204 29.3964 18.0786 29.5799 17.8854 29.6928C17.6922 29.8058 17.4627 29.8393 17.2452 29.7865C17.0278 29.7336 16.8393 29.5984 16.7196 29.4094C16.5998 29.2203 16.558 28.9922 16.6031 28.773L16.8591 27.721L15.1521 28.702C15.0906 28.7373 15.02 28.7805 14.945 28.8264C14.7503 28.9456 14.5267 29.0823 14.3621 29.143C13.8921 30.391 13.3481 31.559 12.8121 32.709L12.8069 32.72C11.8128 34.8489 10.8723 36.8632 10.4141 39.292C11.993 43.33 11.1101 48.503 8.23005 51.966C8.12389 52.0926 7.98374 52.1861 7.82615 52.2356C7.66855 52.2852 7.50008 52.2886 7.34062 52.2455C7.18115 52.2024 7.03733 52.1146 6.92613 51.9924C6.81494 51.8702 6.741 51.7188 6.71305 51.556C6.28505 48.989 5.77005 46.182 4.93005 42.859C4.59405 43.486 4.29705 43.97 4.07005 44.283C3.96728 44.424 3.82405 44.5304 3.65937 44.5881C3.49469 44.6458 3.31636 44.6521 3.14805 44.606C2.97932 44.5612 2.82829 44.466 2.71517 44.333C2.60205 44.2001 2.53223 44.0357 2.51505 43.862C2.22105 41.052 1.53705 38.359 0.873051 35.755C-0.578949 30.068 -1.94495 24.696 0.541051 18.438C1.69055 15.5468 1.90502 13.2371 2.09433 11.1983L2.09705 11.169L2.09844 11.1539C2.22385 9.78627 2.33245 8.60198 2.71105 7.51001C3.06405 6.48901 3.56605 5.69301 4.15405 5.08701L4.11805 5.08001C3.23275 4.97708 2.75275 4.41373 2.1567 3.71419ZM9.8309 9.31873C9.67677 9.33027 9.52187 9.31133 9.37505 9.26301V9.26401C9.22392 9.2192 9.08332 9.14451 8.96158 9.04438C8.83983 8.94424 8.73943 8.82069 8.66631 8.68104C8.59319 8.54139 8.54884 8.38848 8.53588 8.23138C8.52293 8.07428 8.54165 7.91618 8.59091 7.76644C8.64018 7.6167 8.71899 7.47837 8.82269 7.35965C8.92639 7.24093 9.05287 7.14423 9.19462 7.07528C9.33638 7.00632 9.49053 6.96652 9.64794 6.95823C9.80536 6.94994 9.96284 6.97333 10.1111 7.02701C10.2579 7.07533 10.3937 7.15211 10.5109 7.25294C10.628 7.35377 10.7242 7.47669 10.7938 7.61468C10.8635 7.75267 10.9052 7.90302 10.9168 8.05716C10.9283 8.21129 10.9094 8.36619 10.8611 8.51301C10.8127 8.65983 10.736 8.79569 10.6351 8.91284C10.5343 9.02998 10.4114 9.12612 10.2734 9.19577C10.1354 9.26541 9.98504 9.3072 9.8309 9.31873Z" fill="black"/>
</g>
<path fill-rule="evenodd" clip-rule="evenodd" d="M19 13.9736L13.0403 21L10 17.4155L10.8257 16.4419L13.0403 19.0529L18.1743 13L19 13.9736Z" fill="#34D058"/>
<defs>
<clipPath id="clip0_401_47">
<rect width="22" height="22" fill="white"/>
</clipPath>
</defs>
</svg>

<svg xmlns="http://www.w3.org/2000/svg" fill="none" viewBox="0 0 22 22"><g clip-path="url(#a)"><path fill="#000" fill-rule="evenodd" d="M2.157 3.714a12.067 12.067 0 0 0-.894-.97c-.074-.072-.01-.193.092-.175.798.143 1.857.029 3.016-.096 2.791-.302 6.163-.666 7.87 2.347.193.164.345.335.492.5.127.145.252.285.397.413 2.24 1.997 6.238 5.04 8.188 6.193.56.333.273.902-.316.67l-.15-.06c-2.285-.903-5.936-2.346-8.169-.69a6.748 6.748 0 0 1-.153.154h-1.894c.011-.139.039-.276.083-.411.096-.297.3-.506.512-.726l.012-.012c.397-.408.94-.966 1-2.208v-.001c.084-1.827-1.524-3.104-3.156-3.42-1.682-.326-3.839.247-4.744 2.852-.31.896-.41 1.986-.526 3.247v.005c-.189 2.054-.425 4.609-1.672 7.746-2.279 5.739-.979 10.848.401 16.254l.02.082c.474 1.864.96 3.773 1.31 5.758l.457-.982.116-.259c1.88-4.292 3.96-11.339 2.835-16.782-.347-1.677-.676-3.01-1.226-4.276-.089-.206-.022-.384.062-.444.093-.07.287-.013.495.167 1.083.931 2.062 2.71 2.387 4.207 1.284 5.918-.955 13.18-2.919 17.668a96.584 96.584 0 0 1 1.97 8.711c1.807-3.263 1.692-7.026.672-9.46a.853.853 0 0 1-.056-.48c.481-2.77 1.546-5.052 2.577-7.259l.008-.016c1.22-2.616 2.373-5.088 2.663-8.369A21.25 21.25 0 0 0 14 22h1.726c-.006.57-.035 1.154-.088 1.746a18.988 18.988 0 0 1-.508 2.981l2.383-1.372 1.152-2.669a.862.862 0 1 1 1.581.687l-1.285 2.95-.68 2.858a.864.864 0 0 1-1.678-.408l.256-1.052-1.707.981a9.086 9.086 0 0 0-.207.124c-.195.12-.418.256-.583.317-.47 1.248-1.014 2.416-1.55 3.566l-.005.011c-.994 2.129-1.935 4.143-2.393 6.572 1.579 4.038.696 9.211-2.184 12.674a.866.866 0 0 1-1.517-.41c-.428-2.567-.943-5.374-1.783-8.697a13.09 13.09 0 0 1-.86 1.424.86.86 0 0 1-.922.323.857.857 0 0 1-.633-.744c-.294-2.81-.978-5.503-1.642-8.107-1.452-5.687-2.818-11.059-.332-17.317 1.15-2.891 1.364-5.2 1.553-7.24l.003-.029.001-.015c.126-1.368.234-2.552.613-3.644.353-1.021.855-1.817 1.443-2.423l-.036-.007c-.885-.103-1.365-.666-1.961-1.366ZM9.83 9.32a1.177 1.177 0 0 1-.456-.056v.001a1.178 1.178 0 1 1 .736-2.237 1.177 1.177 0 0 1-.28 2.292Z" clip-rule="evenodd"/></g><path fill="#34D058" fill-rule="evenodd" d="M19 13.974 13.04 21 10 17.416l.826-.974 2.214 2.61L18.174 13l.826.974Z" clip-rule="evenodd"/><defs><clipPath id="a"><path fill="#fff" d="M0 0h22v22H0z"/></clipPath></defs></svg>
